assets/icons/back.svg

<svg xmlns="http://www.w3.org/2000/svg" viewBox="0 0 32 32" role="presentation" aria-hidden="true"><path d="M13.3123 10.6873L13.3128 10.6868C13.552 10.4396 13.9478 10.4412 14.1926 10.6863C14.4309 10.9247 14.431 11.3204 14.1926 11.5585L10.4555 15.2985H23.0489C23.3918 15.2991 23.6651 15.5726 23.6651 15.9158C23.6651 16.2574 23.3933 16.5403 23.0488 16.5403H10.4557L14.1926 20.2731L14.1936 20.2741C14.4301 20.519 14.4316 20.9143 14.1926 21.153C13.9478 21.398 13.5516 21.3997 13.3128 21.1525L13.3123 21.1519L8.52109 16.3569L8.52058 16.3564C8.27444 16.1178 8.27433 15.7215 8.5206 15.4833L8.52116 15.4828L13.3123 10.6873Z" fill="currentColor"/><rect x="0.5" y="0.5" width="31" height="31" rx="2.5" fill="none" stroke="#C8C8C8"/></svg>

<svg xmlns="http://www.w3.org/2000/svg" aria-hidden="true" viewBox="0 0 32 32"><path fill="currentColor" d="M13.312 10.687a.616.616 0 0 1 .88 0 .62.62 0 0 1 0 .872l-3.736 3.74h12.593c.343 0 .616.274.616.617a.62.62 0 0 1-.616.624H10.456l3.737 3.733v.001a.63.63 0 0 1 0 .879.616.616 0 0 1-.88 0v-.001L8.52 16.357a.61.61 0 0 1 0-.874z"/><rect width="31" height="31" x=".5" y=".5" fill="none" stroke="#c8c8c8" rx="2.5"/></svg>
